Obsidian-SemiLight/actions/24s/format-align-vertical-bottom.svg

<svg viewBox="0 0 24 24" xmlns="http://www.w3.org/2000/svg"><path d="m11 4v1 2 6h-2l3 4 3-4h-2v-5-3-1zm-7 15v1h1 14 1v-1h-1-14z" fill="#4d4d4d"/></svg>

<svg xmlns="http://www.w3.org/2000/svg" viewBox="0 0 24 24">
  <defs id="defs3051">
    <style type="text/css" id="current-color-scheme">
      .ColorScheme-Text {
        color:#4d4d4d;
      }
      </style>
  </defs>
 <path style="fill:currentColor;fill-opacity:1;stroke:none" 
     d="M 11 4 L 11 5 L 11 7 L 11 13 L 9 13 L 12 17 L 15 13 L 13 13 L 13 8 L 13 5 L 13 4 L 11 4 z M 4 19 L 4 20 L 5 20 L 19 20 L 20 20 L 20 19 L 19 19 L 5 19 L 4 19 z "
     class="ColorScheme-Text"
     />
</svg>
